assets/icons/solid/walkie-talkie.svg

<svg xmlns="http://www.w3.org/2000/svg" viewBox="0 0 384 512"><!--! Font Awesome Free 6.7.2 by @fontawesome - https://fontawesome.com License - https://fontawesome.com/license/free (Icons: CC BY 4.0, Fonts: SIL OFL 1.1, Code: MIT License) Copyright 2024 Fonticons, Inc. --><path d="M112 24c0-13.3-10.7-24-24-24S64 10.7 64 24l0 72L48 96C21.5 96 0 117.5 0 144L0 300.1c0 12.7 5.1 24.9 14.1 33.9l3.9 3.9c9 9 14.1 21.2 14.1 33.9L32 464c0 26.5 21.5 48 48 48l224 0c26.5 0 48-21.5 48-48l0-92.1c0-12.7 5.1-24.9 14.1-33.9l3.9-3.9c9-9 14.1-21.2 14.1-33.9L384 144c0-26.5-21.5-48-48-48l-16 0c0-17.7-14.3-32-32-32s-32 14.3-32 32l-32 0c0-17.7-14.3-32-32-32s-32 14.3-32 32l-48 0 0-72zm0 136l160 0c8.8 0 16 7.2 16 16s-7.2 16-16 16l-160 0c-8.8 0-16-7.2-16-16s7.2-16 16-16zm0 64l160 0c8.8 0 16 7.2 16 16s-7.2 16-16 16l-160 0c-8.8 0-16-7.2-16-16s7.2-16 16-16zm0 64l160 0c8.8 0 16 7.2 16 16s-7.2 16-16 16l-160 0c-8.8 0-16-7.2-16-16s7.2-16 16-16z"/></svg>

<svg xmlns="http://www.w3.org/2000/svg" viewBox="0 0 384 512"><!--! Font Awesome Pro 6.5.1 by @fontawesome - https://fontawesome.com License - https://fontawesome.com/license (Commercial License) Copyright 2023 Fonticons, Inc. --><path d="M112 24c0-13.3-10.7-24-24-24S64 10.7 64 24V96H48C21.5 96 0 117.5 0 144V300.1c0 12.7 5.1 24.9 14.1 33.9l3.9 3.9c9 9 14.1 21.2 14.1 33.9V464c0 26.5 21.5 48 48 48H304c26.5 0 48-21.5 48-48V371.9c0-12.7 5.1-24.9 14.1-33.9l3.9-3.9c9-9 14.1-21.2 14.1-33.9V144c0-26.5-21.5-48-48-48H320c0-17.7-14.3-32-32-32s-32 14.3-32 32H224c0-17.7-14.3-32-32-32s-32 14.3-32 32H112V24zm0 136H272c8.8 0 16 7.2 16 16s-7.2 16-16 16H112c-8.8 0-16-7.2-16-16s7.2-16 16-16zm0 64H272c8.8 0 16 7.2 16 16s-7.2 16-16 16H112c-8.8 0-16-7.2-16-16s7.2-16 16-16zm0 64H272c8.8 0 16 7.2 16 16s-7.2 16-16 16H112c-8.8 0-16-7.2-16-16s7.2-16 16-16z"/></svg>
